chinatelecom.svg

<svg viewBox="0 0 24 24" xmlns="http://www.w3.org/2000/svg"><path d="M15.1703 4.28203C15.1703 4.28203 14.7515 3.81831 14.198 3.81831C14.198 3.81831 12.9865 3.81831 12.1638 6.43588C12.1638 6.43588 11.4608 8.72442 11.4608 12.1198C11.4608 12.1198 11.4608 15.3207 12.1189 17.5793C12.1189 17.5793 12.7771 19.8677 13.7343 19.8677C13.7343 19.8677 14.4074 19.8677 14.9758 18.6113C14.9758 18.6113 15.5442 17.3548 15.7836 15.3057L17.5784 14.857C17.5784 14.857 17.1147 18.6711 15.6788 21.1391C15.6788 21.1391 14.198 23.622 12.3284 23.622C12.3284 23.622 10.0848 23.622 8.49923 20.2566C8.49923 20.2566 6.91375 16.8912 6.91375 12.1198C6.91375 12.1198 6.91375 7.34833 8.49923 3.953C8.49923 3.953 10.0848 0.57264 12.3284 0.57264C12.3284 0.57264 14.572 0.57264 16.1724 4.01282L15.1703 4.28203M21.4823 8.87392C21.4823 8.87392 18.3861 11.4317 13.4501 12.6732C13.4501 12.6732 8.49915 13.8997 4.56539 13.0919C4.56539 13.0919 0.631552 12.2543 0.0482907 9.84619C0.0482907 9.84619-0.44529 7.84192 1.72354 5.62816C1.72354 5.62816 3.86242 3.42939 7.70649 1.96353L7.96073 2.9507C7.96073 2.9507 5.71711 3.90799 4.47563 5.11952C4.47563 5.11952 3.20428 6.39087 3.48847 7.48277C3.48847 7.48277 3.86233 8.87383 6.49488 9.29262C6.49488 9.29262 9.11244 9.69644 12.5078 8.85886C12.5078 8.85886 15.8732 8.02119 18.0271 6.42082C18.0271 6.42082 20.151 4.80539 19.792 3.39944C19.792 3.39944 19.4929 2.1879 17.339 1.66429L17.01 0.377967C17.01 0.377967 19.807 0.482707 21.6618 1.41005C21.6618 1.41005 23.5613 2.3374 23.9502 3.90799C23.9503 3.90808 24.5635 6.30127 21.4823 8.87392" fill="#02489d"/></svg>

<svg viewBox="0 0 24 24" xmlns="http://www.w3.org/2000/svg"><path d="M15.17 4.282s-.418-.464-.972-.464c0 0-1.212 0-2.034 2.618 0 0-.703 2.288-.703 5.684 0 0 0 3.2.658 5.46 0 0 .658 2.288 1.615 2.288 0 0 .673 0 1.242-1.257 0 0 .568-1.256.808-3.305l1.794-.449s-.463 3.814-1.9 6.282c0 0-1.48 2.483-3.35 2.483 0 0-2.243 0-3.829-3.365 0 0-1.585-3.366-1.585-8.137 0 0 0-4.772 1.585-8.167 0 0 1.586-3.38 3.83-3.38 0 0 2.243 0 3.843 3.44l-1.002.269m6.312 4.592s-3.096 2.558-8.032 3.8c0 0-4.95 1.226-8.885.418 0 0-3.933-.838-4.517-3.246 0 0-.493-2.004 1.676-4.218 0 0 2.138-2.199 5.982-3.664l.255.987s-2.244.957-3.485 2.169c0 0-1.272 1.27-.988 2.363 0 0 .374 1.39 3.007 1.81 0 0 2.617.403 6.013-.434 0 0 3.365-.838 5.52-2.438 0 0 2.123-1.616 1.764-3.022 0 0-.3-1.211-2.453-1.735L17.01.378s2.797.105 4.652 1.032c0 0 1.9.927 2.288 2.498 0 0 .614 2.393-2.468 4.966" fill="#02489d"/></svg>
